!!!!SEGMENT: pl-sa--l-1636--014_anonim--keyboard-piece.krn
!!!cenid: 17xx:721
!!!COM: Anonim
!!!COM-rismID: pe30004985
!!!CDT:
!!!CNT:
!!!OTL: [Keyboard piece]
!!!PDT:
!!!AGN: Secular
!!!SMS-siglum: PL-SA
!!!SMS-shelfmark: L 1636
!!!SMS-shelfwork: 014 W
!!!SMS-variant:
!!!SMS-altvar:
!!!NIFC-rismSourceID: 1001076398
!!!NIFC-islandoraID:
!!!URL-pdf-islandora:
!!!URL-scan:
!!!ONB-nifc: 4v, skan 0008, s. 2-3
!!!AIN: 2 empty
!!!key:
**kern	**kern
*part2	*part1
*staff2	*staff1
*Iempty	*Iempty
*I"	*I"
*I'keyb	*I'keyb
*clefC3	*clefC1
*k[]	*k[]
*d:	*d:
*M2/2	*M2/2
*met(c|)	*met(c|)
=1	=1
*2\right	*2\right
1r	4r
!	!LO:TX:b:t=P:problem=caudy wszystkich nut po prawej
.	4.a\
.	16b\LL
.	16a\JJ
.	4g#X/
=2	=2
2r	8a\L
.	16g\L
.	16f\JJ
.	4e/
!LO:TX:b:t=P:problem=caudy wszystkich nut po prawej	!
4.d\	4f/
.	4g/
16e\LL	.
16d\JJ	.
=3	=3
*^	*
4c#X\	2ryy	4e/
8d\L	.	[<4f/
16c#\L	.	.
16B\JJ	.	.
4c#/	4A\	4f/]
4d/	4B\	8g/L
.	.	16f/L
.	.	16g/JJ
*v	*v	*
=4	=4
*	*^
!	!LO:TX:t=P:problem=mixed beam	!
4c#X\	8e/L	4ryy
.	16a\L	.
.	16g\JJ	.
4r	4f/	4d\
*clefF4	*	*
4.A\	2e/	4d\
.	.	4c#X\
16B\LL	.	.
16A\JJ	.	.
*	*v	*v
=5	=5
4G#X\	8B/L
.	16e/L
.	16d/JJ
*	*^
8A\L	4f/	4d\
16G#\L	.	.
16F\JJ	.	.
4E\	4g/	8B\L
.	.	8c#X\J
4F\	4f/	[<4d\
=6	=6	=6
!LO:TX:t=P:problem=mixed beam	!	!
8G\L	2e/	4d\]
8E\	.	.
8A\	.	4c#X\
8AA/J	.	.
!!LO:LB:g=original
4.D/	8f/L	8d\L
.	8g/J	8e\J
.	8a/L	4f\
16E\LL	16b/L	.
16D\JJ	16a/JJ	.
=7	=7	=7
4C#X/	[>4a/	4e\
8D/L	4a/_	8f\L
16C#/L	.	16e\L
16BB/JJ	.	16d\JJ
4AA/	4a/]	4c#X\
4BB/	8a/L	4d\
.	8f/J	.
=8	=8	=8
8C/L	[>2g/	4e\
16D/L	.	.
16C/JJ	.	.
8BB/L	.	4d\
16C/L	.	.
16BB/JJ	.	.
4.AA/	8g/L]	2c\
.	16f/L	.
.	16e/JJ	.
.	(>[<4f/	.
16BB/LL	.	.
16AA/JJ	.	.
=9	=9	=9
4.GG/	8f/L])	2B\
.	16e/L	.
.	16d/JJ	.
.	4.e/	.
16AA/LL	.	.
16GG/JJ	.	.
!LO:TX:b:t=P:problem=zamazana nuta	!	!
4.FF/	.	2A\
.	16d/LL	.
.	16c/JJ	.
.	[<4d/	.
8GG/	.	.
*	*v	*v
=10	=10
*	*^
2AA/	8d/L]	4ryy
.	16c/L	.
.	16B/JJ	.
.	4c#X/	8A\L
.	.	8G\J
2D 2DD/	2d 2A/ 2F#X/	2ryy
*	*v	*v
==:|!	==:|!
*-	*-
!!!system-decoration: [(s1,s2)]
!!!RDF**kern: > = above
!!!RDF**kern: < = below
!!!EED: Mateusz Mrugas
!!!EEV: 2020-12-07
!!!ENC: Mateusz Solarz
!!!END: 2020-06-15
